icons/Editor/font-color.svg

<svg viewBox="0 0 24 24" xmlns="http://www.w3.org/2000/svg"><path d="M15.2459 14H8.75407L7.15407 18H5L11 3H13L19 18H16.8459L15.2459 14ZM14.4459 12L12 5.88516L9.55407 12H14.4459ZM3 20H21V22H3V20Z"/></svg>

<svg xmlns="http://www.w3.org/2000/svg" viewBox="0 0 24 24">
    <g>
        <path fill="none" d="M0 0h24v24H0z"/>
        <path d="M15.246 14H8.754l-1.6 4H5l6-15h2l6 15h-2.154l-1.6-4zm-.8-2L12 5.885 9.554 12h4.892zM3 20h18v2H3v-2z"/>
    </g>
</svg>
